!!!COM:	Pierre de la Rue
**kern	**kern
*part2	*part1
*staff2	*staff1
*clefGv2	*clefG2
*k[]	*k[]
*M2/1	*M2/1
=1-	=1-
1.d	1.d
4c	2e
4B	.
=2	=2
1A	1f
1B	1g
=3	=3
1c	1e
[1d	1d
=4	=4
2d]	1r
4c	.
4B	.
1c	[1a
=5	=5
1d	2a]
.	4g
.	4f
1e	1g
=6	=6
1f	1a
1d	1b
=7	=7
1c	1cc
1f	1a
=8	=8
2e	1g
1e	.
.	1cc
4d	.
4c	.
=9	=9
2d	2b
2.e	1b
4d	.
4c	4a
4B	4g
=10	=10
2A	2a
2.d	2.b
4c	4a
[2c	4g
.	4f
=11	=11
2c]	2e
4B	1a
4A	.
1B	.
.	2g
=12	=12
[0A	0a
=13	=13
0A]	1r
.	1e
=14	=14
1r	1e
1A	1e
=15	=15
1A	1.f
1A	.
.	2e
=16	=16
1.B	2d
.	1g
2A	2f
=17	=17
2G	2.e
1c	.
.	4d
.	2c
2B	[2f
=18	=18
2A	2f]
2G	2e
1F	2d
.	2c
=19	=19
2r	2B
1B	1g
2A	2f
=20	=20
2G	2e
2F	2d
2E	2c
4D	2B
4E	.
=21	=21
4F	1A
4G	.
1A	.
.	1B
2G	.
=22	=22
1A	0A
2r	.
[2A	.
=23	=23
2A]	1r
4G	.
4F	.
2G	2r
[2A	[2c
=24	=24
2A]	2c]
4G	4B
4F	4A
2G	2B
[2A	[2c
=25	=25
2A]	4c]
.	4d
4G	4e
4F	4f
2G	2d
2A	2c
=26	=26
2D	2r
2A	2f
2B	2.g
2c	.
.	4f
=27	=27
2.d	4d
.	4e
.	1f
4c	.
4A	.
4B	.
2c	4c
.	4d
=28	=28
2A	4e
.	4f
4G	2.g
4A	.
4B	.
4A	4f
4G	4e
4F	4d
=29	=29
4G	2e
4F	.
4E	1d
4D	.
1E	.
.	2c
=30	=30
0D	0d
==	==
*-	*-
